X:0039
T:Had the Lass till I win at her
M:2/4
L:1/8
Q:1/4=128
I: :: ::
Z:Jack Campin * www.campin.me.uk * 2009
K:A Mixolydian
Aeeg      |fdec|Aeef      |gG (B/c/d/B/) |
Aeeg      |fdef|gddg      |BG (B/c/d/B/):|
Ag (f/g/)a|fdec|Ag (f/g/a)|BgdB          |
Ag (f/g/)a|fdef|gddg      |BG (B/c/d/B/):|
<end>
<start>
